X:1
T:Albion, SM
T:Albion, SM
T:Attributed to Robert M. Boyd, 1816
T:Public Domain Courtesy of the Cyber Hymnal™
C:Attributed to Robert M. Boyd, 1816
Z:Public Domain
Z:Courtesy of the Cyber Hymnal™
%%score ( 1 2 ) ( 3 4 )
L:1/8
Q:1/4=110
M:4/4
K:G
V:1 treble 
V:2 treble 
V:3 bass 
V:4 bass 
V:1
 [DG]4 | [DB]2 [Dd]2 [DB]2 G2 | [FA]4 [FA]4 | [GB]2 [Gd]2 (cB) [FA]2 | !fermata![EG]4 [DG]4 | %5
 [DB]2 [DB]2 [Gd]2 [Fd]2 | ([GB]3 [FA] [EG]2) [GB]2 | [FA]4 [DB]4 | [DG]2 D2 (GA) (Bc) | %9
 !fermata![Fd]4 [Gd]4 | [GB]2 [Dd]2 (cB) [DA]2 | !fermata![DG]4 |] %12
V:2
 x4 | x6 G2 | x8 | x4 G2 x2 | x8 | x8 | x8 | x8 | x2 D2 D2 G2 | x8 | x4 E2 x2 | x4 |] %12
V:3
 G,4 | [G,B,]2 [G,B,]2 [G,D]2 [E,B,]2 | [D,A,]4 [D,D]4 | [G,B,]2 [G,B,]2 [C,E]2 [D,D]2 | %4
 !fermata![B,,B,]4 [G,B,]4 | [G,D]2 [G,D]2 [D,B,]2 [D,A,]2 | (G,3 A, B,2) [G,D]2 | [D,C]4 [G,D]4 | %8
 B,2 [A,D]2 C2 [E,B,]2 | !fermata![D,A,]4 [D,B,]4 | [G,D]2 [G,B,]2 [C,E]2 [D,D]2 | %11
 !fermata![G,,D]4 |] %12
V:4
 G,4 | x8 | x8 | x8 | x8 | x8 | G,4 x4 | x8 | B,2 (G,F,) x4 | x8 | x8 | x4 |] %12

